icons/svg/transport/aerialway_t_bar.svg

<?xml version="1.0" encoding="UTF-8" standalone="no"?>
<!-- Created with Inkscape (http://www.inkscape.org/) -->

<svg
   xmlns:dc="http://purl.org/dc/elements/1.1/"
   xmlns:cc="http://creativecommons.org/ns#"
   xmlns:rdf="http://www.w3.org/1999/02/22-rdf-syntax-ns#"
   xmlns:svg="http://www.w3.org/2000/svg"
   xmlns="http://www.w3.org/2000/svg"
   xmlns:sodipodi="http://sodipodi.sourceforge.net/DTD/sodipodi-0.dtd"
   xmlns:inkscape="http://www.inkscape.org/namespaces/inkscape"
   version="1.0"
   width="580"
   height="580"
   id="svg2"
   sodipodi:version="0.32"
   inkscape:version="0.91 r"
   sodipodi:docname="aerialway_t_bar.svg"
   inkscape:output_extension="org.inkscape.output.svg.inkscape">
  <metadata
     id="metadata10">
    <rdf:RDF>
      <cc:Work
         rdf:about="">
        <dc:format>image/svg+xml</dc:format>
        <dc:type
           rdf:resource="http://purl.org/dc/dcmitype/StillImage" />
        <cc:license
           rdf:resource="http://web.resource.org/cc/PublicDomain" />
        <dc:language>en</dc:language>
        <dc:title />
      </cc:Work>
    </rdf:RDF>
  </metadata>
  <sodipodi:namedview
     inkscape:window-height="1004"
     inkscape:window-width="1920"
     inkscape:pageshadow="2"
     inkscape:pageopacity="0.0"
     guidetolerance="10.0"
     gridtolerance="10.0"
     objecttolerance="10.0"
     borderopacity="1.0"
     bordercolor="#666666"
     pagecolor="#ffffff"
     id="base"
     showgrid="false"
     inkscape:zoom="0.7071068"
     inkscape:cx="431.15435"
     inkscape:cy="297.49182"
     inkscape:window-x="1680"
     inkscape:window-y="0"
     inkscape:current-layer="svg2"
     inkscape:window-maximized="1">
    <inkscape:grid
       type="xygrid"
       id="grid3779" />
  </sodipodi:namedview>
  <defs
     id="defs4">
    <inkscape:perspective
       sodipodi:type="inkscape:persp3d"
       inkscape:vp_x="0 : 290 : 1"
       inkscape:vp_y="0 : 1000 : 0"
       inkscape:vp_z="580 : 290 : 1"
       inkscape:persp3d-origin="290 : 193.33333 : 1"
       id="perspective12" />
    <style
       type="text/css"
       id="style6">
   
    .fil0 {fill:#EF7900}
   
  </style>
    <inkscape:perspective
       id="perspective6807"
       inkscape:persp3d-origin="29.116032 : 19.410688 : 1"
       inkscape:vp_z="58.232063 : 29.116032 : 1"
       inkscape:vp_y="0 : 1000 : 0"
       inkscape:vp_x="0 : 29.116032 : 1"
       sodipodi:type="inkscape:persp3d" />
    <inkscape:perspective
       id="perspective6954"
       inkscape:persp3d-origin="290 : 193.33333 : 1"
       inkscape:vp_z="580 : 290 : 1"
       inkscape:vp_y="0 : 1000 : 0"
       inkscape:vp_x="0 : 290 : 1"
       sodipodi:type="inkscape:persp3d" />
    <marker
       viewBox="0 0 10 10"
       refY="5"
       refX="10"
       orient="auto"
       markerWidth="4"
       markerUnits="strokeWidth"
       markerHeight="3"
       id="ArrowStart">
      <path
         id="path2295"
         d="M 10 0 L 0 5 L 10 10 z" />
    </marker>
    <marker
       viewBox="0 0 10 10"
       refY="5"
       refX="0"
       orient="auto"
       markerWidth="4"
       markerUnits="strokeWidth"
       markerHeight="3"
       id="ArrowEnd">
      <path
         id="path2292"
         d="M 0 0 L 10 5 L 0 10 z" />
    </marker>
    <inkscape:perspective
       id="perspective7597"
       inkscape:persp3d-origin="178.5405 : 158.483 : 1"
       inkscape:vp_z="357.08099 : 237.7245 : 1"
       inkscape:vp_y="0 : 1000 : 0"
       inkscape:vp_x="0 : 237.7245 : 1"
       sodipodi:type="inkscape:persp3d" />
  </defs>
  <g
     id="g1327">
    <path
       d="M 66.275,1.768 C 24.94,1.768 1.704,23.139 1.704,66.804 L 1.704,516.927 C 1.704,557.771 22.598,579.156 63.896,579.156 L 515.92,579.156 C 557.227,579.156 578.149,558.84 578.149,516.927 L 578.149,66.804 C 578.149,24.203 557.227,1.768 514.627,1.768 C 514.624,1.768 66.133,1.625 66.275,1.768 z"
       style="fill:#111111;stroke:#eeeeee;stroke-width:3.40799999"
       id="path1329" />
  </g>
  <g
     id="g2319"
     transform="translate(879.29125,36.805119)">
    <path
       id="path2323"
       style="fill:#ffffff;stroke:none"
       d="" />
  </g>
  <g
     id="g2325"
     transform="translate(879.29125,36.805119)">
    <path
       id="path2329"
       style="fill:#ffffff;stroke:none"
       d="" />
  </g>
  <path
     style="color:#000000;clip-rule:nonzero;display:inline;overflow:visible;visibility:visible;opacity:1;isolation:auto;mix-blend-mode:normal;color-interpolation:sRGB;color-interpolation-filters:linearRGB;solid-color:#000000;solid-opacity:1;fill:none;fill-opacity:1;fill-rule:nonzero;stroke:#ffffff;stroke-width:24.73438263;stroke-linecap:round;stroke-linejoin:round;stroke-miterlimit:4;stroke-dasharray:none;stroke-dashoffset:0;stroke-opacity:1;marker:none;color-rendering:auto;image-rendering:auto;shape-rendering:auto;text-rendering:auto;enable-background:accumulate"
     d="M 436.99199,41.699039 200.11122,315.00538"
     id="path4350"
     inkscape:connector-curvature="0"
     sodipodi:nodetypes="cc" />
  <circle
     cx="-77.269211"
     cy="183.20197"
     r="32.625916"
     id="circle3-4"
     style="fill:#ffffff;fill-opacity:1"
     transform="matrix(0.27846806,-0.96044549,0.96044549,0.27846806,0,0)" />
  <path
     style="color:#000000;clip-rule:nonzero;display:inline;overflow:visible;visibility:visible;opacity:1;isolation:auto;mix-blend-mode:normal;color-interpolation:sRGB;color-interpolation-filters:linearRGB;solid-color:#000000;solid-opacity:1;fill:none;fill-opacity:1;fill-rule:nonzero;stroke:#ffffff;stroke-width:56.55480576;stroke-linecap:round;stroke-linejoin:round;stroke-miterlimit:4;stroke-dasharray:none;stroke-dashoffset:0;stroke-opacity:1;marker:none;color-rendering:auto;image-rendering:auto;shape-rendering:auto;text-rendering:auto;enable-background:accumulate"
     d="m 158.60956,206.96029 18.06097,97.4434"
     id="path4145"
     inkscape:connector-curvature="0"
     sodipodi:nodetypes="cc" />
  <path
     style="color:#000000;clip-rule:nonzero;display:inline;overflow:visible;visibility:visible;opacity:1;isolation:auto;mix-blend-mode:normal;color-interpolation:sRGB;color-interpolation-filters:linearRGB;solid-color:#000000;solid-opacity:1;fill:none;fill-opacity:1;fill-rule:nonzero;stroke:#ffffff;stroke-width:40.384;stroke-linecap:round;stroke-linejoin:round;stroke-miterlimit:4;stroke-dasharray:none;stroke-dashoffset:0;stroke-opacity:1;marker:none;color-rendering:auto;image-rendering:auto;shape-rendering:auto;text-rendering:auto;enable-background:accumulate"
     d="M 305.8728,451.17765 270.66059,350.21697 181.26144,315.36155"
     id="path4145-9-8"
     inkscape:connector-curvature="0"
     sodipodi:nodetypes="ccc" />
  <path
     inkscape:connector-curvature="0"
     style="font-style:normal;font-variant:normal;font-weight:normal;font-stretch:normal;font-size:40px;line-height:125%;font-family:NPSPICT3;-inkscape-font-specification:NPSPICT3;text-align:start;writing-mode:lr-tb;text-anchor:start;fill:#ffffff;fill-opacity:1;stroke:none"
     d="m 523.69176,417.17612 -17.272,2.3472 c 1.30191,5.20677 0.0803,11.37129 -3.66519,15.11751 -1.78861,1.78892 -4.0259,3.06175 -6.6285,3.71809 l -338.54424,88.98428 5.06475,19.5428 337.35794,-89.23046 c 8.36556,-2.33194 9.5253,-4.20589 15.82258,-10.16638 6.34848,-6.34994 9.97676,-21.68319 7.86466,-30.31304 z"
     id="flowRoot3192"
     sodipodi:nodetypes="ccccccccc" />
  <path
     style="color:#000000;clip-rule:nonzero;display:inline;overflow:visible;visibility:visible;opacity:1;isolation:auto;mix-blend-mode:normal;color-interpolation:sRGB;color-interpolation-filters:linearRGB;solid-color:#000000;solid-opacity:1;fill:none;fill-opacity:1;fill-rule:nonzero;stroke:#ffffff;stroke-width:36.48400116;stroke-linecap:round;stroke-linejoin:round;stroke-miterlimit:4;stroke-dasharray:none;stroke-dashoffset:0;stroke-opacity:1;marker:none;color-rendering:auto;image-rendering:auto;shape-rendering:auto;text-rendering:auto;enable-background:accumulate"
     d="M 312.134,172.10881 162.63077,194.52904"
     id="path4145-9-8-3"
     inkscape:connector-curvature="0"
     sodipodi:nodetypes="cc" />
  <circle
     cx="-308.99307"
     cy="260.39319"
     r="22.019314"
     id="circle3-4-7"
     style="fill:#ffffff;fill-opacity:1"
     transform="matrix(0.27846806,-0.96044549,0.96044549,0.27846806,0,0)" />
</svg>

<svg width="580" height="580" viewBox="0 0 580 580" fill="none" xmlns="http://www.w3.org/2000/svg">
<g clip-path="url(#clip0)">
<path d="M66.2751 1.76766C24.9401 1.76766 1.7041 23.1387 1.7041 66.8037V516.927C1.7041 557.771 22.5981 579.156 63.8961 579.156H515.92C557.227 579.156 578.149 558.84 578.149 516.927V66.8037C578.149 24.2027 557.227 1.76766 514.627 1.76766C514.624 1.76766 66.1331 1.62466 66.2751 1.76766Z" fill="#111111" stroke="#EEEEEE" stroke-width="3.408"/>
<path d="M436.992 41.6992L200.111 315.006" stroke="white" stroke-width="24.7344" stroke-linecap="round" stroke-linejoin="round"/>
<path d="M185.774 134.314C190.791 117.008 180.83 98.9106 163.524 93.893C146.217 88.8753 128.121 98.837 123.103 116.143C118.085 133.449 128.047 151.546 145.353 156.564C162.659 161.581 180.756 151.62 185.774 134.314Z" fill="white"/>
<path d="M158.609 206.96L176.67 304.403" stroke="white" stroke-width="56.5548" stroke-linecap="round" stroke-linejoin="round"/>
<path d="M305.873 451.177L270.66 350.217L181.261 315.361" stroke="white" stroke-width="40.384" stroke-linecap="round" stroke-linejoin="round"/>
<path d="M523.692 417.176L506.42 419.523C507.722 424.73 506.5 430.894 502.755 434.641C500.966 436.429 498.729 437.702 496.126 438.359L157.582 527.343L162.647 546.886L500.005 457.655C508.37 455.323 509.53 453.449 515.827 447.489C522.176 441.139 525.804 425.806 523.692 417.176V417.176Z" fill="white"/>
<path d="M312.134 172.108L162.631 194.529" stroke="white" stroke-width="36.484" stroke-linecap="round" stroke-linejoin="round"/>
<path d="M185.197 375.414C188.583 363.734 181.86 351.52 170.18 348.134C158.5 344.747 146.287 351.471 142.9 363.15C139.514 374.83 146.237 387.044 157.917 390.431C169.597 393.817 181.811 387.094 185.197 375.414Z" fill="white"/>
</g>
<defs>
<clipPath id="clip0">
<path d="M0 0H580V580H0V0Z" fill="white"/>
</clipPath>
</defs>
</svg>
